icons/computer.svg

<svg width="24" height="24" viewBox="0 0 24 24" fill="none" xmlns="http://www.w3.org/2000/svg">
<path fill-rule="evenodd" clip-rule="evenodd" d="M2 4C2 3.44772 2.44772 3 3 3H21C21.5523 3 22 3.44772 22 4V17C22 17.5523 21.5523 18 21 18H13V20H16C16.5523 20 17 20.4477 17 21C17 21.5523 16.5523 22 16 22H8C7.44772 22 7 21.5523 7 21C7 20.4477 7.44772 20 8 20H11V18H3C2.44772 18 2 17.5523 2 17V4ZM4 5V16H20V5H4Z" fill="black"/>
</svg>

<svg
  width="24"
  height="24"
  viewBox="0 0 24 24"
  xmlns="http://www.w3.org/2000/svg"
>
  <path
    fill-rule="evenodd"
    clip-rule="evenodd"
    d="M2 4a1 1 0 0 1 1-1h18a1 1 0 0 1 1 1v13a1 1 0 0 1-1 1h-8v2h3a1 1 0 1 1 0 2H8a1 1 0 1 1 0-2h3v-2H3a1 1 0 0 1-1-1V4zm2 1v11h16V5H4z"
  />
</svg>
